src/images/logo.svg

<?xml version="1.0" encoding="UTF-8"?>
<svg width="86px" height="51px" viewBox="0 0 86 51" version="1.1" xmlns="http://www.w3.org/2000/svg" xmlns:xlink="http://www.w3.org/1999/xlink">
    <!-- Generator: Sketch 53 (72520) - https://sketchapp.com -->
    <title>Group 28</title>
    <desc>Created with Sketch.</desc>
    <defs>
        <linearGradient x1="50%" y1="0%" x2="50%" y2="100%" id="linearGradient-1">
            <stop stop-color="#00FFC2" offset="0%"></stop>
            <stop stop-color="#00D1F5" offset="100%"></stop>
        </linearGradient>
        <linearGradient x1="50%" y1="0%" x2="50%" y2="100%" id="linearGradient-2">
            <stop stop-color="#00FFC2" offset="0%"></stop>
            <stop stop-color="#00D1F5" offset="100%"></stop>
        </linearGradient>
        <linearGradient x1="50%" y1="0%" x2="50%" y2="100%" id="linearGradient-3">
            <stop stop-color="#00FFC2" offset="0%"></stop>
            <stop stop-color="#00D1F5" offset="100%"></stop>
        </linearGradient>
    </defs>
    <g id="Page-1" stroke="none" stroke-width="1" fill="none" fill-rule="evenodd">
        <g id="DROPDOWN-FITER" transform="translate(-44.000000, -23.000000)">
            <g id="Group-28" transform="translate(44.000000, 23.000000)">
                <path d="M40.7019328,41.5754697 L57.1579328,49.4011274 C57.7636265,49.6881184 57.5582932,50.5966589 56.8883833,50.5966589 L2.11036528,50.5966589 C1.44204095,50.5966589 1.23591483,49.6912895 1.83843735,49.4019202 L18.0264734,41.6222445 C25.1893563,38.1799382 33.5247797,38.1624967 40.7019328,41.5754697" id="Fill-1" fill="#2964EE"></path>
                <path d="M15.9937527,38.2479598 L0.988563474,48.5867706 C0.437572483,48.9665184 -0.246607697,48.3354553 0.0887436546,47.7543382 L27.4765635,0.315203054 C27.811122,-0.262742892 28.6982572,0.0107706214 28.6483112,0.676716567 L27.29105,18.5866985 C26.6909058,26.5114553 22.5382572,33.7393472 15.9937527,38.2479598" id="Fill-3" fill="#2964EE"></path>
                <path d="M43.1376301,38.2479598 L58.1428193,48.5867706 C58.6938103,48.9665184 59.3779905,48.3354553 59.0426392,47.7543382 L31.6548193,0.315203054 C31.3202608,-0.262742892 30.4331256,0.0107706214 30.4838644,0.676716567 L31.8403328,18.5866985 C32.440477,26.5114553 36.5931256,33.7393472 43.1376301,38.2479598" id="Fill-5" fill="#2964EE"></path>
                <g id="Group-5-Copy">
                    <g id="Rectangle-Copy-5" opacity="0.8">
                        <g id="Mask">
                            <path d="M40.7019328,41.5754697 L57.1579328,49.4011274 C57.7636265,49.6881184 57.5582932,50.5966589 56.8883833,50.5966589 L2.11036528,50.5966589 C1.44204095,50.5966589 1.23591483,49.6912895 1.83843735,49.4019202 L18.0264734,41.6222445 C25.1893563,38.1799382 33.5247797,38.1624967 40.7019328,41.5754697" id="Fill-1" fill="url(#linearGradient-1)"></path>
                            <path d="M15.9937527,38.2479598 L0.988563474,48.5867706 C0.437572483,48.9665184 -0.246607697,48.3354553 0.0887436546,47.7543382 L27.4765635,0.315203054 C27.811122,-0.262742892 28.6982572,0.0107706214 28.6483112,0.676716567 L27.29105,18.5866985 C26.6909058,26.5114553 22.5382572,33.7393472 15.9937527,38.2479598" id="Fill-3" fill="url(#linearGradient-2)"></path>
                            <path d="M43.1376301,38.2479598 L58.1428193,48.5867706 C58.6938103,48.9665184 59.3779905,48.3354553 59.0426392,47.7543382 L31.6548193,0.315203054 C31.3202608,-0.262742892 30.4331256,0.0107706214 30.4838644,0.676716567 L31.8403328,18.5866985 C32.440477,26.5114553 36.5931256,33.7393472 43.1376301,38.2479598" id="Fill-5" fill="url(#linearGradient-3)"></path>
                        </g>
                    </g>
                    <path d="M68.5350269,45.0618761 L67.1804497,45.0618761 L67.1804497,38.5368864 L68.5350269,38.5368864 L68.5350269,45.0618761 Z M71.0538323,45.0618761 L69.6992551,45.0618761 L69.6992551,38.5368864 L71.0538323,38.5368864 L71.0538323,45.0618761 Z M77.0653222,38.5368864 L77.0653222,39.6922611 L75.1131373,39.6922611 L75.1131373,45.0618761 L73.7408532,45.0618761 L73.7408532,39.6922611 L71.7798149,39.6922611 L71.7798149,38.5368864 L77.0653222,38.5368864 Z M76.3833873,41.9366097 L78.9243263,41.9366097 L78.9243263,43.1318249 L76.3833873,43.1318249 L76.3833873,41.9366097 Z M81.2483559,39.6701275 L81.2483559,41.4231098 L82.7932822,41.4231098 C83.1002032,41.4231098 83.3303905,41.3876964 83.483851,41.3168684 C83.7553581,41.1929196 83.8911096,40.9479767 83.8911096,40.5820324 C83.8911096,40.1865765 83.7597848,39.9209758 83.4971312,39.7852223 C83.349573,39.708492 83.1282391,39.6701275 82.8331228,39.6701275 L81.2483559,39.6701275 Z M83.116433,38.5368864 C83.5738634,38.5457399 83.9257843,38.6018111 84.1722065,38.7051018 C84.4186286,38.8083926 84.6274203,38.9603752 84.7985878,39.1610543 C84.9402436,39.3263195 85.0523862,39.5092889 85.1350187,39.709968 C85.2176513,39.9106471 85.258967,40.1393588 85.258967,40.39611 C85.258967,40.7059822 85.1807623,41.0106853 85.0243507,41.3102284 C84.867939,41.6097714 84.6097161,41.8215142 84.2496741,41.9454631 C84.5506928,42.0664608 84.7639112,42.2383635 84.8893356,42.4611763 C85.0147601,42.6839892 85.0774713,43.0241057 85.0774713,43.481536 L85.0774713,43.9197816 C85.0774713,44.2178491 85.0892758,44.4200008 85.1128851,44.5262426 C85.1482991,44.694459 85.2309304,44.818406 85.3607816,44.8980874 L85.3607816,45.0618761 L83.8601225,45.0618761 C83.8188062,44.9172691 83.789295,44.8006999 83.771588,44.712165 C83.7361741,44.5291929 83.7169918,44.3417968 83.7140406,44.1499712 L83.7051872,43.5435101 C83.6992849,43.1273961 83.6232935,42.8499909 83.477211,42.7112862 C83.3311284,42.5725815 83.0574121,42.5032302 82.6560538,42.5032302 L81.2483559,42.5032302 L81.2483559,45.0618761 L79.9159123,45.0618761 L79.9159123,38.5368864 L83.116433,38.5368864 Z" id="IIT-R" fill="#FEFEFE" fill-rule="nonzero"></path>
                    <path d="M27.646,16.8901154 L27.646,30.7161154 L28.793,30.7161154 C31.025,30.7161154 31.304,29.7861154 31.304,23.8031154 C31.304,17.8201154 31.025,16.8901154 28.793,16.8901154 L27.646,16.8901154 Z M21.88,34.8701154 L21.88,12.7361154 L30.25,12.7361154 C36.915,12.7361154 37.256,18.0061154 37.256,23.8031154 C37.256,29.6001154 36.915,34.8701154 30.25,34.8701154 L21.88,34.8701154 Z M52.787,27.4301154 L44.51,27.4301154 L44.51,29.6311154 C44.51,31.4291154 45.254,31.8941154 46.029,31.8941154 C47.021,31.8941154 47.61,31.2741154 47.61,28.9801154 L52.632,28.9801154 C52.57,33.0411154 50.679,35.3041154 46.06,35.3041154 C40.666,35.3041154 38.93,32.8861154 38.93,26.5001154 C38.93,20.0831154 41.038,17.6651154 46.06,17.6651154 C50.524,17.6651154 52.787,19.6491154 52.787,25.7251154 L52.787,27.4301154 Z M47.579,24.3921154 L47.579,23.6481154 C47.579,21.8811154 47.207,21.0751154 46.029,21.0751154 C44.882,21.0751154 44.51,21.8811154 44.51,23.6481154 L44.51,24.3921154 L47.579,24.3921154 Z M54.43,34.8701154 L54.43,12.7361154 L60.01,12.7361154 L60.01,34.8701154 L54.43,34.8701154 Z M61.281,21.8501154 L61.281,18.0991154 L63.141,18.0991154 L63.141,13.1701154 L68.721,13.1701154 L68.721,18.0991154 L70.922,18.0991154 L70.922,21.8501154 L68.721,21.8501154 L68.721,29.8481154 C68.721,30.8091154 69.155,31.1501154 70.054,31.1501154 L70.922,31.1501154 L70.922,34.8701154 C69.899,34.9941154 68.814,35.0561154 67.884,35.0561154 C64.474,35.0561154 63.141,34.4981154 63.141,30.7781154 L63.141,21.8501154 L61.281,21.8501154 Z M85.647,34.8701154 L80.253,34.8701154 C80.067,34.2811154 80.005,33.6611154 79.912,32.9791154 L79.85,32.9791154 C79.23,34.4671154 77.742,35.3041154 76.068,35.3041154 C72.72,35.3041154 71.418,33.2581154 71.418,30.3751154 C71.418,27.2751154 72.503,25.8181154 76.068,24.9811154 L78.269,24.4541154 C79.478,24.1751154 79.912,23.6481154 79.912,22.6251154 C79.912,21.6021154 79.447,21.0751154 78.486,21.0751154 C77.432,21.0751154 76.936,21.5401154 76.905,23.3071154 L72.069,23.3071154 C72.069,18.5021154 75.944,17.6651154 78.486,17.6651154 C82.392,17.6651154 85.12,18.6881154 85.12,23.0591154 L85.12,31.2431154 C85.12,32.7931154 85.182,34.0021154 85.647,34.8701154 Z M78.176,31.5531154 C79.416,31.5531154 79.912,30.6231154 79.912,28.7941154 L79.912,26.7791154 L79.85,26.7791154 C79.54,27.2131154 78.765,27.1821154 77.959,27.5541154 C77.091,27.9571154 76.812,28.6081154 76.812,29.7241154 C76.812,30.8401154 77.339,31.5531154 78.176,31.5531154 Z" id="Delta" fill="#FFFFFF" fill-rule="nonzero"></path>
                </g>
            </g>
        </g>
    </g>
</svg>

<svg xmlns="http://www.w3.org/2000/svg" width="86" height="51" viewBox="0 0 86 51">
    <defs>
        <linearGradient id="prefix__a" x1="50%" x2="50%" y1="0%" y2="100%">
            <stop offset="0%" stop-color="#00FFC2"/>
            <stop offset="100%" stop-color="#00D1F5"/>
        </linearGradient>
        <linearGradient id="prefix__b" x1="50%" x2="50%" y1="0%" y2="100%">
            <stop offset="0%" stop-color="#00FFC2"/>
            <stop offset="100%" stop-color="#00D1F5"/>
        </linearGradient>
        <linearGradient id="prefix__c" x1="50%" x2="50%" y1="0%" y2="100%">
            <stop offset="0%" stop-color="#00FFC2"/>
            <stop offset="100%" stop-color="#00D1F5"/>
        </linearGradient>
    </defs>
    <g fill="none" fill-rule="evenodd">
        <path fill="#2964EE" d="M40.702 41.575l16.456 7.826c.606.287.4 1.196-.27 1.196H2.11c-.668 0-.874-.906-.272-1.195l16.188-7.78c7.163-3.442 15.499-3.46 22.676-.047M15.994 38.248L.989 48.587c-.551.38-1.236-.252-.9-.833L27.477.315c.334-.578 1.221-.304 1.171.362l-1.357 17.91c-.6 7.924-4.753 15.152-11.297 19.661M43.138 38.248l15.005 10.339c.55.38 1.235-.252.9-.833L31.655.315c-.335-.578-1.222-.304-1.171.362l1.356 17.91c.6 7.924 4.753 15.152 11.298 19.661"/>
        <g opacity=".8">
            <path fill="url(#prefix__a)" d="M40.702 41.575l16.456 7.826c.606.287.4 1.196-.27 1.196H2.11c-.668 0-.874-.906-.272-1.195l16.188-7.78c7.163-3.442 15.499-3.46 22.676-.047"/>
            <path fill="url(#prefix__b)" d="M15.994 38.248L.989 48.587c-.551.38-1.236-.252-.9-.833L27.477.315c.334-.578 1.221-.304 1.171.362l-1.357 17.91c-.6 7.924-4.753 15.152-11.297 19.661"/>
            <path fill="url(#prefix__c)" d="M43.138 38.248l15.005 10.339c.55.38 1.235-.252.9-.833L31.655.315c-.335-.578-1.222-.304-1.171.362l1.356 17.91c.6 7.924 4.753 15.152 11.298 19.661"/>
        </g>
        <path fill="#FEFEFE" fill-rule="nonzero" d="M68.535 45.062H67.18v-6.525h1.355v6.525zm2.519 0h-1.355v-6.525h1.355v6.525zm6.011-6.525v1.155h-1.952v5.37h-1.372v-5.37H71.78v-1.155h5.285zm-.682 3.4h2.541v1.195h-2.54v-1.195zm4.865-2.267v1.753h1.545c.307 0 .537-.035.69-.106.272-.124.408-.369.408-.735 0-.395-.131-.661-.394-.797-.147-.077-.369-.115-.664-.115h-1.585zm1.868-1.133c.458.009.81.065 1.056.168.247.103.455.255.627.456.141.165.253.348.336.549.083.2.124.43.124.686 0 .31-.078.615-.235.914-.156.3-.414.512-.774.635.3.121.514.293.64.516.125.223.187.563.187 1.02v.439c0 .298.012.5.036.606.035.168.118.292.248.372v.164h-1.5c-.042-.145-.072-.261-.09-.35-.035-.183-.054-.37-.057-.562l-.009-.606c-.006-.417-.082-.694-.228-.833-.146-.138-.42-.208-.82-.208h-1.409v2.559h-1.332v-6.525h3.2z"/>
        <text fill="#FFF" font-family="HelveticaNeue-BlackCond, Helvetica Neue" font-size="31" font-style="condensed" font-weight="700">
            <tspan x="20.516" y="34.87">Delta</tspan>
        </text>
    </g>
</svg>
